images/button-images/sc2_BACK.svg

<?xml version='1.0' encoding='utf-8'?>
<svg xmlns="http://www.w3.org/2000/svg" viewBox="0 0 47.853 22.015" width="47.853" height="22.015"><g id="glyph"><g id="button"><g transform="scale(0.5) translate(-428.502,-145.584)"><path d="M 478.4164 145.9071 C 442.8041 145.5844 441.1714 145.8123 434.8520 151.9657 C 430.4547 156.2475 428.5428 161.0034 428.5258 167.6982 C 428.5015 177.1822 434.1027 184.8495 443.5766 188.2997 C 446.4992 189.3646 454.0705 189.6144 477.8286 189.4325 C 505.4166 189.2212 508.6628 189.0197 511.8286 187.3310 C 520.2079 182.8612 524.1590 176.3948 524.1860 167.1064 C 524.2076 159.5838 520.9918 153.4700 514.7289 149.1278 L 510.5024 146.1982 Z  M 476.3813 149.4989 C 492.1250 149.5039 507.9104 150.1181 510.4828 151.3388 C 517.6068 154.7192 521.8616 164.1457 519.7700 171.9130 C 518.3335 177.2478 512.5489 183.1271 507.3051 184.5829 C 501.2022 186.2772 449.4038 185.9937 444.4828 184.2392 C 436.8945 181.5336 432.5414 175.3223 432.5414 167.1982 C 432.5414 159.5661 435.4858 154.8852 442.5278 151.3193 C 444.9355 150.1000 460.6376 149.4943 476.3813 149.4989 Z  M 460.7348 157.6298 L 461.0317 164.3525 L 461.3286 171.0771 L 465.3286 171.1376 C 468.9309 171.1929 469.3601 171.4715 469.6450 173.9481 L 469.9614 176.6981 L 480.8950 176.6981 L 491.8286 176.6981 L 491.8286 170.1981 L 491.8286 163.6981 L 487.3950 163.6981 C 483.3018 163.6981 482.9372 163.4870 482.6450 160.9481 L 482.3286 158.1981 L 471.5317 157.9149 Z  M 476.1293 159.7978 C 479.5371 159.8038 479.8286 160.2247 479.8286 161.6591 C 479.8286 163.4409 479.1950 163.6982 474.8286 163.6982 C 470.1619 163.6982 469.8286 163.8649 469.8286 166.1982 C 469.8286 168.3151 469.3641 168.6982 466.7973 168.6982 C 463.4445 168.6982 462.5127 167.3105 463.0024 163.0341 C 463.3265 160.2040 463.3415 160.1991 471.5786 159.9091 C 473.5117 159.8411 474.9934 159.7959 476.1293 159.7978 Z  M 475.8286 166.6982 C 478.0286 166.6982 479.8286 167.1482 479.8286 167.6982 C 479.8286 168.2482 478.0286 168.6982 475.8286 168.6982 C 473.6286 168.6982 471.8286 168.2482 471.8286 167.6982 C 471.8286 167.1482 473.6286 166.6982 475.8286 166.6982 Z  M 485.8286 166.6982 L 489.8286 166.6982 L 489.8286 170.6982 L 489.8286 174.6982 L 481.3871 174.6982 C 476.7446 174.6982 472.6685 174.2482 472.3286 173.6982 C 471.1452 171.7835 472.9749 170.6982 477.3871 170.6982 C 481.1614 170.6982 481.8286 170.3980 481.8286 168.6982 C 481.8286 167.0316 482.4953 166.6982 485.8286 166.6982 Z " style="fill:#000000" /></g></g></g></svg>

<svg xmlns="http://www.w3.org/2000/svg" width="47.853" height="22.015" viewBox="0 0 47.853 22.015"><g id="glyph"><g id="button"><g transform="scale(0.5) translate(-428.502,-145.584)"><path d="M478.416 145.907c-35.612-.323-37.245-.095-43.564 6.059-4.397 4.281-6.31 9.037-6.326 15.732-.024 9.484 5.577 17.152 15.05 20.602 2.923 1.065 10.494 1.314 34.253 1.132 27.588-.21 30.834-.412 34-2.101 8.379-4.47 12.33-10.936 12.357-20.225.022-7.522-3.194-13.636-9.457-17.978l-4.227-2.93Zm-2.035 3.592c15.744.005 31.53.62 34.102 1.84 7.124 3.38 11.379 12.807 9.287 20.574-1.437 5.335-7.221 11.214-12.465 12.67-6.103 1.694-57.901 1.41-62.822-.344-7.589-2.705-11.942-8.917-11.942-17.04 0-7.633 2.945-12.314 9.987-15.88 2.407-1.219 18.11-1.825 33.853-1.82m-15.646 8.13.297 6.724.297 6.724 4 .06c3.602.056 4.031.334 4.316 2.811l.316 2.75h21.868v-13h-4.434c-4.093 0-4.458-.211-4.75-2.75l-.316-2.75-10.797-.283Zm15.394 2.169c3.408.006 3.7.427 3.7 1.861 0 1.782-.634 2.04-5 2.04-4.667 0-5 .166-5 2.5 0 2.116-.465 2.5-3.032 2.5-3.353 0-4.284-1.389-3.795-5.665.325-2.83.34-2.835 8.577-3.125 1.933-.068 3.414-.113 4.55-.111m-.3 6.9c2.2 0 4 .45 4 1s-1.8 1-4 1-4-.45-4-1 1.8-1 4-1m10 0h4v8h-8.442c-4.642 0-8.719-.45-9.058-1-1.184-1.915.646-3 5.058-3 3.774 0 4.442-.3 4.442-2 0-1.666.666-2 4-2" style="fill:#000"/></g></g></g></svg>
